-- In normal Tidal panning, 0.5 would be centre, 0 left, 1 right

-- With our binaural setup, we made pan 0.5 centre/front,
--  0.25 left, 0.75 right and 0 (or 1) behind
d1 $ s "sd" # gain 1.2 # pan 0.75

-- f(ront) l(eft) b(ehind) r(ight)
d1 $ slow 4 $ n "5*3 11(3,4) 1*3 17(3,8)" # s "alphabet" # pan "0.5 0.25 0 0.75" # gain 1.2
d1 $ slow 4 $ n "[5 11] [1 11] [5 17] [1 17]" # s "alphabet" # pan "0.375 0.125 0.625 0.875"
d1 $ slow 6 $ n "5 [5 17 ~!2] 17 [1 17 ~!2] 1 [1 11 ~!2] 11 [5 11 ~!2]" # s "alphabet" # pan "0.5 0.625 0.75 0.875 0 0.125 0.25 0.375"

d1 $ slow 4 $ n "1 2 3 4 5 6 7 8" # s "numbers" # pan (range 0.5 1.5 saw)
d2 $ s "hh lt bd sn ht mt arpy alphabet" # n "<1 2 13>" # pan "0 0.125 0.25 0.375 0.5 0.625 0.75 <0.875 0.375 0.625 0.5>"
d1 silence

d2 $ slow 2 $ sound "hh:2*4 hh:1*4" # pan "[0.4 0.6]*2"
d2 $ sound "hh*8" # pan "0.75"
d2 $ sound "hh(7,12)" # pan (slow 8 $ saw) # gain 1.5
d2 silence

d1 $ sound "bd*4 sn(3,8)" # pan (range 0.2 0.8 rand)
d1 $ sound "bd sn:1 sn:2 mt*2" # pan (slow 4 $ saw) # vowel "a e i" # gain 1.5
d1 $ juxBy 0.5 ((# speed 2) . rev) $ n "1 2 3 4" # sound "numbers" # pan (slow 3 $ saw)
d1 $ juxBy 0.5 (rev) $ sound "bd cp*2 sn:2 mt*3" # pan (slow 5 $ saw)
d1 $ superimpose ((+ pan "0.4") . (# speed 1.2) . rev) $ n "1 2 3 4" # sound "numbers" # pan (slow 4 $ saw)
d1 $ off 0.125 ((+ pan 0.4) . (# speed 2) . rev) $ n "1 2 3 4*<1 4>" # sound "[arpy,sd]" # pan (slow 4 $ range 0.2 0.8 saw)

hush
